X:19297
T:mmandmm
B:"Alt-Egerlnder Tnze", E. Baumann
Z:abc transcription Simon Wascher
N:please mail errors to simon.wascher@chello.at
M:3/4
L:1/4
K:F
z|AA>A|AA>A|AGA|cB>A|
GG>G|GG>G|1GAB|dc>B:|2dcB|AA||
|:A/c/|agf|edc|dcB|dcA/c/|
agf|edc|bag|f2:|
|:c/c/|d3|cB2|gg>a|g/a/fc/c/|
d3|cB2|g/f/e/c/d/e/|f2:|
